X:32
T: Jump At the Sun
O:klezmer
C: John Kirkpatrick 1972
M: 6/8
Z: Transcribed to abc by Mary Lou KnackR: jig
K: Em
|: "Em"EGB ^A2B  | EGB ^A2B  | eBB eBB  |BAG "B"F3  |
"Em"EGB ^A2B  | EGB ^A2B  |eBB "Am"cB=A  | "B7"GAF "Em"E3 :|
|:"Em"eBB gfe  |"B7"fBB agf  | "Em"gfe gfe  | "B"f^dB "B7"c2B  |
"Em"eBB gfe  | "B7"fBB agf  | "Em"eBB "Am"cBA  |"B7"GAF "Em"E3 :|





